svg/database-fill.svg

<?xml version="1.0" encoding="UTF-8"?>
<svg xmlns="http://www.w3.org/2000/svg" xmlns:xlink="http://www.w3.org/1999/xlink" width="32" height="32" viewBox="0 0 32 32">
<path fill-rule="nonzero" fill="rgb(0%, 0%, 0%)" fill-opacity="1" d="M 7.808594 3.554688 C 9.957031 2.578125 12.855469 2 16 2 C 19.144531 2 22.042969 2.578125 24.191406 3.554688 C 26.25 4.488281 28 5.984375 28 8 C 28 10.015625 26.25 11.511719 24.191406 12.445312 C 22.042969 13.421875 19.144531 14 16 14 C 12.855469 14 9.957031 13.421875 7.808594 12.445312 C 5.75 11.511719 4 10.015625 4 8 C 4 5.984375 5.75 4.488281 7.808594 3.554688 M 4 12.320312 L 4 14 C 4 16.015625 5.75 17.511719 7.808594 18.445312 C 9.957031 19.421875 12.855469 20 16 20 C 19.144531 20 22.042969 19.421875 24.191406 18.445312 C 26.25 17.511719 28 16.015625 28 14 L 28 12.320312 C 27.085938 13.1875 25.992188 13.824219 25.019531 14.265625 C 22.554688 15.386719 19.363281 16 16 16 C 12.636719 16 9.445312 15.386719 6.980469 14.265625 C 6.007812 13.824219 4.914062 13.1875 4 12.320312 M 4 18.320312 L 4 20 C 4 22.015625 5.75 23.511719 7.808594 24.445312 C 9.957031 25.421875 12.855469 26 16 26 C 19.144531 26 22.042969 25.421875 24.191406 24.445312 C 26.25 23.511719 28 22.015625 28 20 L 28 18.320312 C 27.085938 19.1875 25.992188 19.824219 25.019531 20.265625 C 22.554688 21.386719 19.363281 22 16 22 C 12.636719 22 9.445312 21.386719 6.980469 20.265625 C 6.007812 19.824219 4.914062 19.1875 4 18.320312 M 4 24.320312 L 4 26 C 4 28.015625 5.75 29.511719 7.808594 30.445312 C 9.957031 31.421875 12.855469 32 16 32 C 19.144531 32 22.042969 31.421875 24.191406 30.445312 C 26.25 29.511719 28 28.015625 28 26 L 28 24.320312 C 27.085938 25.1875 25.992188 25.824219 25.019531 26.265625 C 22.554688 27.386719 19.363281 28 16 28 C 12.636719 28 9.445312 27.386719 6.980469 26.265625 C 6.007812 25.824219 4.914062 25.1875 4 24.320312 "/>
</svg>

<svg role="img" viewBox="0 0 32 32" xmlns="http://www.w3.org/2000/svg"><path d="M7.809 3.555C9.957 2.578 12.855 2 16 2s6.043.578 8.191 1.555C26.25 4.488 28 5.985 28 8s-1.75 3.512-3.809 4.445C22.043 13.422 19.145 14 16 14s-6.043-.578-8.191-1.555C5.75 11.512 4 10.015 4 8s1.75-3.512 3.809-4.445M4 12.32V14c0 2.016 1.75 3.512 3.809 4.445C9.957 19.422 12.855 20 16 20s6.043-.578 8.191-1.555C26.25 17.512 28 16.015 28 14v-1.68c-.914.867-2.008 1.504-2.98 1.946C22.555 15.386 19.363 16 16 16s-6.555-.613-9.02-1.734c-.972-.442-2.066-1.078-2.98-1.946m0 6V20c0 2.016 1.75 3.512 3.809 4.445C9.957 25.422 12.855 26 16 26s6.043-.578 8.191-1.555C26.25 23.512 28 22.015 28 20v-1.68c-.914.867-2.008 1.504-2.98 1.946C22.555 21.386 19.363 22 16 22s-6.555-.613-9.02-1.734c-.972-.442-2.066-1.078-2.98-1.946m0 6V26c0 2.016 1.75 3.512 3.809 4.445C9.957 31.422 12.855 32 16 32s6.043-.578 8.191-1.555C26.25 29.512 28 28.015 28 26v-1.68c-.914.867-2.008 1.504-2.98 1.946C22.555 27.386 19.363 28 16 28s-6.555-.613-9.02-1.734c-.972-.442-2.066-1.078-2.98-1.946"/></svg>
